X: 2029
T: Ducks On The Millpond
B: steve tunes
M:4/4
R: reel
Q: 1/4=130
K:D
V:1 
"D (G)"d2d2f2e2|d2d2edBA|d2g2f2e2|BABd edBA|
"Bm (Em)"d2d2f2e2|d2d2edBA|d2g2f2e2|BABd edBA:|
|:"D (G)"fga2a2fg|a2f2e2d2|fga2a2A2|BABd edBA|
"Bm (Em)"fga2a2fg|a2f2e2d2|fga2a2A2|BABd edBA:|
% abcbook-tune_id 62a420d1dafb80f17da0ee1f


% abcbook-boost 0
% abcbook-tablature 
% abcbook-transpose 
% abcbook-lastupdated 1654967545188
% abcbook-soundfonts 
% abcbook-repeats 3
% Rhythm Reel
% Titles One title
% Transcriptions Only 1 transcription
% Movement Has lots of stepwise movement
% Movement Has some stepwise movement
% Mode major
% Key D
% Time_signature 4/4
% Has_accompaniment_chords Has chords

